X:1
T:Wonderful Grace of Jesus
T:Wonderful Grace of Jesus
T:Haldor Lillenas
T:Haldor Lillenas, 1918
T:Public Domain Courtesy of the Cyber Hymnal™
T:Public Domain Courtesy of the Cyber Hymnal™
C:Haldor Lillenas
Z:Public Domain
Z:Courtesy of the Cyber Hymnal™
%%score ( 1 2 ) ( 3 4 )
L:1/8
Q:1/4=112
M:4/4
K:C
V:1 treble 
V:2 treble 
V:3 bass 
V:4 bass 
V:1
 [EG]2 [EG]>[EG] [EG]2 [EG]2 | [^DA]4 [EG]4 | [Ec]2 [CE]>[DF] [EG]2 [DF]2 | E8 | %4
w: 1.~Won- der- ful grace of|Je- sus,|Great- er than all my|sin—|
w: 2.~Won- der- ful grace of|Je- sus,|Reach- ing to all the|lost—|
w: 3.~Won- der- ful grace of|Je- sus,|Reach- ing the most de-|filed—|
 [CE]2 [CE]>[CE] [CE]2 [CE]2 | [CA]4 [Ec]4 | [DB]2 [DB]>G [^FA]2 [DA]2 | (z4 F4) | %8
w: How shall my tongue de-|scribe it?|Where shall His praise be-||
w: By it I have been|par- doned,|saved to the ut- ter-||
w: By its trans- form- ing|pow- er|Mak- ing him God’s dear||
 [EG]2 [EG]>[EG] [EG]2 [EG]2 | [^DA]4 [EG]4 | [Ec]2 [Ec]>[Ec] [Ed]2 [Ec]2 | (c4 A2) [FA][FA] | %12
w: * gin? Tak- ing a-|way my|bur- den, Set- ting my|spir- * it free;|
w: * most. Chains have been|torn a-|sun- der, Giv- ing me|lib- * er- ty;|
w: * child, Pur- chas- ing|peace and|heav- en For all e-|tern- * i- ty;|
 [^Dc]2 [DB]>[DA] [Dc]2 [DA]2 | [EG]4 [^D^F]4 | [EG]4 [Fd]4 | [Ec]8 || %16
w: For the won- der- ful|grace of|Je- sus|reach-|
w: For the won- der- ful|grace of|Je- sus|reach-|
w: And the won- der- ful|grace of|Je- sus|reach-|
"^Refrain" [CE]>[CE] [CE]>[CE] [CE]>[CE] [CE]>[CE] | [B,F]>[B,F] [B,F]>[B,F] [B,F]2 [B,F]2 | %18
w: es me. * * * * * *||
w: es me. Won- der- ful the match- less|grace, the match- less grace of|
w: es me. * * * * * *||
 [CE]>[CE] [CE]>[CE] [CE]>[CE] [CE]>[CE] | [DF]>[DF] [DF]>[DF] (3(FDE(3FGA) | [FB]4 [Fd]2 [FB]2 | %21
w: |||
w: Je- sus, Deep- er than the might- y|roll- ing sea, the roll- * * * * *|ing sea! Won-|
w: |||
 [Ec]4 [Ge]2 [Ec]2 | [DB]4 [CA]2 [CD]2 | [B,G]>[CA] [DB]>[CA] ([B,G]2 (3FE{e}D) | %24
w: |||
w: der- ful grace,|all suf- fi-|cient for me, for ev- * * *|
w: |||
 C>[CD] [CE]>[DF] [EG]>[FA] [EG]>[CE] | [B,G]4 [B,D]4 | C>[B,D] [CE]>[EG] [Ec]>[EB] [Ed]>[Gc] | %27
w: |||
w: en me! Broad- er than the scope of|my trans-|gres- sions, Great- er far than all my|
w: |||
 [Fc]6 [FA]2 | [^Dc]>[Dc] [Dc]>[Dc] [D^d]2 [Dc]2 | [Ee]2 [Ec]2 [Ff]2 [Fd]2 | [Ecg]4 [FB]4 | %31
w: ||||
w: sin and|shame! O mag- ni- fy the|pre- cious name of|Je- sus!|
w: ||||
 [Ec]8 |] %32
w: |
w: Praise|
w: |
V:2
 x8 | x8 | x8 | (C4 D4) | x8 | x8 | x7/2 G/ x4 | G8 | x8 | x8 | x8 | F6 x2 | x8 | x8 | x8 | x8 || %16
 x8 | x8 | x8 | x4 D4 | x8 | x8 | x8 | x8 | x8 | x8 | C3/2 x13/2 | x8 | x8 | x8 | x8 | x8 |] %32
V:3
 [C,C]2 [C,C]>[C,C] [C,C]2 [C,G,]2 | [C,^F,]4 [C,G,]4 | [C,G,]2 [C,G,]>[C,G,] [G,,G,]2 [B,,G,]2 | %3
w: ~ ~ ~ ~ ~|~ ~|~ ~ ~ ~ ~~|
 ([C,G,]4 [B,,^G,]4) | [A,,A,]2 [A,,A,]>[A,,A,] [A,,A,]2 [A,,A,]2 | [A,,A,]4 [A,,A,]4 | %6
w: ~ *|~ ~ ~ ~ ~|~ ~|
 [D,G,]2 [D,G,]>[D,B,] [D,C]2 [D,C]2 | [G,,B,]8 | [C,C]2 [C,C]>[C,C] [C,C]2 [C,G,]2 | %9
w: ~ ~ ~ ~ ~|~|~ ~ ~ ~ ~|
 [C,^F,]4 [C,G,]4 | [C,G,]2 [C,G,]>[C,G,] [C,_B,]2 [C,B,]2 | (A,4 C2) [F,C][F,C] | %12
w: ~ ~~|~ ~ ~ ~ ~|~ * ~ ~|
 [^F,A,]2 [F,B,]>[F,C] [F,A,]2 [F,C]2 | [G,C]4 [_A,C]4 | [G,C]4 [G,,B,]4 | [C,C]8 || %16
w: ~ ~ ~ ~ ~|~ ~|~ ~|~|
 C,>D, E,>F, G,>A, G,>E, | G,4 D,4 | C,>D, E,>G, C>B, D>C | B,8 | D,>E, F,>G, B,2 G,2 | %21
w: Won- der- ful the match- less grace of|Je- sus,|Deep- er than the might- y roll- ing|sea!|High- er than the mount- ain,|
 C,>D, E,>G, C2 G,2 | ^F,>E, D,>E, F,>C B,>A, | G,6 z2 | %24
w: Spark- ing like a fount- ain,|All suf- fi- cient grace for e- ven|me!|
 [C,E,]>[C,F,] [C,G,]>[C,G,] [C,C]>[C,C] [C,C]>[C,G,] | [D,G,]2 [D,G,]2 G,2 [F,G,]2 | %26
w: Broad- er than the scope of my trans-|gres- sions, sing it!|
 [E,G,]>[D,G,] [C,G,]>[C,G,] [C,G,]>[C,G,] [C,^A,]>[C,A,] | %27
w: Great- er far than all my sin and|
 [F,A,]>[F,A,] [F,A,]>[F,A,] [F,A,]2 [F,C]2 | [^F,A,]>[F,A,] [F,A,]>[F,A,] [F,A,]2 [F,A,]2 | %29
w: shame, my sin and shame! *||
 [G,C]2 [^A,C]2 [=A,C]2 [A,C]2 | [G,C]4 [G,,D]4 | [C,G,]8 |] %32
w: |||
V:4
 x8 | x8 | x8 | x8 | x8 | x8 | x8 | x8 | x8 | x8 | x8 | F,6 x2 | x8 | x8 | x8 | x8 || x8 | x8 | %18
 x8 | x8 | x8 | x8 | x8 | x8 | x8 | x4 G,2 x2 | x8 | x8 | x8 | x8 | x8 | x8 |] %32

